app/images/icons/instagram-icon.svg

<svg width="39" height="39" viewBox="0 0 39 39" fill="none" xmlns="http://www.w3.org/2000/svg">
<circle cx="19.5" cy="19.5" r="19.5" fill="#ECECEC"/>
<path d="M19.7476 16.4986C17.9572 16.4986 16.4962 17.9597 16.4962 19.75C16.4962 21.5403 17.9572 23.0014 19.7476 23.0014C21.5379 23.0014 22.9989 21.5403 22.9989 19.75C22.9989 17.9597 21.5379 16.4986 19.7476 16.4986ZM29.4993 19.75C29.4993 18.4036 29.5115 17.0694 29.4359 15.7254C29.3602 14.1644 29.0041 12.7789 27.8626 11.6374C26.7186 10.4934 25.3356 10.1398 23.7746 10.0641C22.4282 9.98853 21.094 10.0007 19.75 10.0007C18.4036 10.0007 17.0694 9.98853 15.7254 10.0641C14.1644 10.1398 12.7789 10.4959 11.6374 11.6374C10.4934 12.7814 10.1398 14.1644 10.0641 15.7254C9.98853 17.0718 10.0007 18.406 10.0007 19.75C10.0007 21.094 9.98853 22.4306 10.0641 23.7746C10.1398 25.3356 10.4959 26.7211 11.6374 27.8626C12.7814 29.0066 14.1644 29.3602 15.7254 29.4359C17.0718 29.5115 18.406 29.4993 19.75 29.4993C21.0964 29.4993 22.4306 29.5115 23.7746 29.4359C25.3356 29.3602 26.7211 29.0041 27.8626 27.8626C29.0066 26.7186 29.3602 25.3356 29.4359 23.7746C29.5139 22.4306 29.4993 21.0964 29.4993 19.75ZM19.7476 24.7527C16.9791 24.7527 14.7449 22.5184 14.7449 19.75C14.7449 16.9816 16.9791 14.7473 19.7476 14.7473C22.516 14.7473 24.7503 16.9816 24.7503 19.75C24.7503 22.5184 22.516 24.7527 19.7476 24.7527ZM24.9551 15.7108C24.3088 15.7108 23.7868 15.1888 23.7868 14.5424C23.7868 13.896 24.3088 13.3741 24.9551 13.3741C25.6015 13.3741 26.1235 13.896 26.1235 14.5424C26.1237 14.6959 26.0936 14.8479 26.035 14.9898C25.9763 15.1316 25.8903 15.2605 25.7817 15.369C25.6732 15.4775 25.5443 15.5636 25.4025 15.6222C25.2606 15.6809 25.1086 15.711 24.9551 15.7108Z" fill="#31352B"/>
</svg>

<svg xmlns="http://www.w3.org/2000/svg" fill="none" viewBox="0 0 39 39"><circle cx="19.5" cy="19.5" r="19.5" fill="#ECECEC"/><path fill="#31352B" d="M19.748 16.499a3.258 3.258 0 0 0-3.252 3.251 3.258 3.258 0 0 0 3.252 3.251 3.258 3.258 0 0 0 3.25-3.251 3.258 3.258 0 0 0-3.25-3.251zm9.751 3.251c0-1.346.013-2.68-.063-4.025-.076-1.56-.432-2.946-1.573-4.088-1.144-1.144-2.527-1.497-4.088-1.573-1.347-.075-2.681-.063-4.025-.063-1.346 0-2.68-.012-4.025.063-1.56.076-2.946.432-4.088 1.573-1.144 1.144-1.497 2.527-1.573 4.088-.075 1.347-.063 2.681-.063 4.025 0 1.344-.012 2.68.063 4.025.076 1.56.432 2.946 1.573 4.088 1.144 1.144 2.527 1.497 4.088 1.573 1.347.076 2.681.063 4.025.063 1.346 0 2.68.013 4.025-.063 1.56-.076 2.946-.432 4.088-1.573 1.144-1.144 1.497-2.527 1.573-4.088.078-1.344.063-2.679.063-4.025zm-9.751 5.003a4.996 4.996 0 0 1-5.003-5.003 4.996 4.996 0 0 1 5.003-5.003 4.996 4.996 0 0 1 5.002 5.003 4.996 4.996 0 0 1-5.002 5.003zm5.207-9.042a1.167 1.167 0 0 1-1.168-1.169c0-.646.522-1.168 1.168-1.168a1.167 1.167 0 0 1 .827 1.995 1.166 1.166 0 0 1-.827.342z"/></svg>
